X:29
T:Weste Hornpipe. JBu.29
T:Morpeth Rant,aka. JBu.29
O:England,South Yorkshire
S:Joshua Burnett’s MS,c1835,S.Yorkshire
M:C
L:1/8
Q:1/2=90
R:.hornpipe
N:Pick-up notes not marked as triplets in MS
Z:vmp.R.Greig.2011
K:Bb
(3FGA|B2FE DB,DF|GEGB AFAc|dBec “MS unclear”fdcB|A2c2cedc|
B2FE DB,DF|GEGB AFAc|Bbab gecA|B2B2B2:|
|:(3fga|bfdB GBeg|fedc BAGF|ecec dBdB|A2F2F3B|
GEGB edcB|AFAc fedc|Bbab gecA|B2B2B2:|

